icons/terminal-24.svg

<svg width="24" height="24" viewBox="0 0 24 24" xmlns="http://www.w3.org/2000/svg">
  <path d="M9.25001 12C9.25001 12.1989 9.17099 12.3897 9.03034 12.5303L6.28034 15.2803C5.98744 15.5732 5.51257 15.5732 5.21968 15.2803C4.92678 14.9874 4.92678 14.5126 5.21968 14.2197L7.43935 12L5.21968 9.78033C4.92678 9.48744 4.92678 9.01256 5.21968 8.71967C5.51257 8.42678 5.98745 8.42678 6.28034 8.71967L9.03034 11.4697C9.17099 11.6103 9.25001 11.8011 9.25001 12Z"/>
  <path d="M11.25 14C10.8358 14 10.5 14.3358 10.5 14.75C10.5 15.1642 10.8358 15.5 11.25 15.5H16.25C16.6642 15.5 17 15.1642 17 14.75C17 14.3358 16.6642 14 16.25 14H11.25Z"/>
  <path fill-rule="evenodd" clip-rule="evenodd" d="M0 4.75C0 3.7835 0.783502 3 1.75 3H22.25C23.2165 3 24 3.7835 24 4.75V19.25C24 20.2165 23.2165 21 22.25 21H1.75C0.783502 21 0 20.2165 0 19.25V4.75ZM1.75 4.5C1.61193 4.5 1.5 4.61193 1.5 4.75V19.25C1.5 19.3881 1.61193 19.5 1.75 19.5H22.25C22.3881 19.5 22.5 19.3881 22.5 19.25V4.75C22.5 4.61193 22.3881 4.5 22.25 4.5H1.75Z"/>
</svg>

<svg xmlns="http://www.w3.org/2000/svg" width="24" height="24" viewBox="0 0 24 24"><path d="M9.25 12a.75.75 0 01-.22.53l-2.75 2.75a.75.75 0 01-1.06-1.06L7.44 12 5.22 9.78a.75.75 0 111.06-1.06l2.75 2.75c.141.14.22.331.22.53zm2 2a.75.75 0 000 1.5h5a.75.75 0 000-1.5h-5z"/><path fill-rule="evenodd" d="M0 4.75C0 3.784.784 3 1.75 3h20.5c.966 0 1.75.784 1.75 1.75v14.5A1.75 1.75 0 0122.25 21H1.75A1.75 1.75 0 010 19.25V4.75zm1.75-.25a.25.25 0 00-.25.25v14.5c0 .138.112.25.25.25h20.5a.25.25 0 00.25-.25V4.75a.25.25 0 00-.25-.25H1.75z"/></svg>
